X:1
T: Mrs. Fraser Macpherson's Strathspey
C:William Macpherson
R:Strathspey
Q: 128
K:F
M:4/4
L:1/16
|:ag|fc3 c3B AF3 c3A|BG3 g3f ec3 c3e|dB3 fB3 cA3 fA3|((3=B2a2g2) ((3f2e2d2) ec3 c2ag|
fc3 c3B AF3 c3A|BG3 g3f ec3 c3e|((3d2B2d2) ((3b2d2B2) ((3c2A2c2) ((3a2c2A2) |((3g2e2c2) ((3B2G2c2) AF3 F2((3e2f2g2) |
a3f da3 g3e ^cA3|DF3 Bd3 cA3 A3c|dB3 fB3 cA3 fA3|=B3A Gg3 ec3 c2ag|
fc3 c3B AF3 c3A|BG3 g3f ec3 c3_e|((3d2b2d2) ((3B2F2D2) ((3C2F2A2) ((3c2f2a2) |b3g ec3 fF3 F2:|
